dist/icons/svgs/box-archive-outline.svg

<svg xmlns="http://www.w3.org/2000/svg" width="24" height="24" fill="currentcolor" class="icon-box-archive-outline" viewBox="0 0 24 24">
  <path d="M3.875 5.125V7H20.125V5.125H3.875ZM3.25 3.25H20.75C21.4141 3.25 22 3.83594 22 4.5V7.625C22 8.32812 21.4141 8.875 20.75 8.875H3.25C2.54688 8.875 2 8.32812 2 7.625V4.5C2 3.83594 2.54688 3.25 3.25 3.25ZM8.25 11.6875C8.25 11.1797 8.64062 10.75 9.1875 10.75H14.8125C15.3203 10.75 15.75 11.1797 15.75 11.6875C15.75 12.2344 15.3203 12.625 14.8125 12.625H9.1875C8.64062 12.625 8.25 12.2344 8.25 11.6875ZM3.25 18.25V10.125H5.125V18.25C5.125 18.6016 5.39844 18.875 5.75 18.875H18.25C18.5625 18.875 18.875 18.6016 18.875 18.25V10.125H20.75V18.25C20.75 19.6562 19.6172 20.75 18.25 20.75H5.75C4.34375 20.75 3.25 19.6562 3.25 18.25Z"/>
</svg>

<svg xmlns="http://www.w3.org/2000/svg" width="24" height="24" fill="currentColor" class="icon-box-archive-outline" viewBox="0 0 24 24">
  <path d="M3.875 5.125V7h16.25V5.125zM3.25 3.25h17.5c.664 0 1.25.586 1.25 1.25v3.125c0 .703-.586 1.25-1.25 1.25H3.25c-.703 0-1.25-.547-1.25-1.25V4.5c0-.664.547-1.25 1.25-1.25m5 8.438c0-.508.39-.938.938-.938h5.624a.95.95 0 0 1 .938.938c0 .546-.43.937-.937.937H9.186c-.546 0-.937-.39-.937-.937m-5 6.562v-8.125h1.875v8.125c0 .352.273.625.625.625h12.5a.64.64 0 0 0 .625-.625v-8.125h1.875v8.125c0 1.406-1.133 2.5-2.5 2.5H5.75a2.47 2.47 0 0 1-2.5-2.5"/>
</svg>
